build/img/welcome/btns.svg

<svg width="128" height="72" viewBox="0 0 128 72" fill="none" xmlns="http://www.w3.org/2000/svg">
<g filter="url(#filter0_d_2001_76)">
<circle cx="36" cy="35" r="19.5" transform="rotate(-90 36 35)" fill="white" fill-opacity="0.1"/>
<circle cx="36" cy="35" r="19.5" transform="rotate(-90 36 35)" stroke="url(#paint0_radial_2001_76)"/>
<circle cx="36" cy="35" r="19.5" transform="rotate(-90 36 35)" stroke="url(#paint1_radial_2001_76)"/>
<circle cx="36" cy="35" r="19.5" transform="rotate(-90 36 35)" stroke="url(#paint2_radial_2001_76)"/>
<g clip-path="url(#clip0_2001_76)">
<path d="M38.5831 43.3513C38.9799 43.7884 39.6669 43.7884 40.0638 43.3513L40.3896 42.9925C40.7358 42.6112 40.7358 42.0293 40.3896 41.648L34.9635 35.6722C34.6173 35.291 34.6173 34.7091 34.9635 34.3278L40.3896 28.352C40.7358 27.9707 40.7358 27.3888 40.3896 27.0075L40.0638 26.6487C39.6669 26.2117 38.9799 26.2117 38.5831 26.6487L32.6766 33.1536L31.6104 34.3278C31.2642 34.7091 31.2642 35.291 31.6104 35.6722L32.6766 36.8464L38.5831 43.3513Z" fill="#EDEDED"/>
</g>
</g>
<g filter="url(#filter1_d_2001_76)">
<circle cx="92" cy="35" r="19.5" transform="rotate(90 92 35)" fill="white" fill-opacity="0.1"/>
<circle cx="92" cy="35" r="19.5" transform="rotate(90 92 35)" stroke="url(#paint3_radial_2001_76)"/>
<circle cx="92" cy="35" r="19.5" transform="rotate(90 92 35)" stroke="url(#paint4_radial_2001_76)"/>
<circle cx="92" cy="35" r="19.5" transform="rotate(90 92 35)" stroke="url(#paint5_radial_2001_76)"/>
<g clip-path="url(#clip1_2001_76)">
<path d="M89.4169 26.6487C89.0201 26.2116 88.3331 26.2116 87.9362 26.6487L87.6104 27.0075C87.2642 27.3888 87.2642 27.9707 87.6104 28.352L93.0365 34.3278C93.3827 34.709 93.3827 35.2909 93.0365 35.6722L87.6104 41.648C87.2642 42.0293 87.2642 42.6112 87.6104 42.9925L87.9362 43.3513C88.3331 43.7883 89.0201 43.7883 89.4169 43.3513L95.3234 36.8464L96.3896 35.6722C96.7358 35.2909 96.7358 34.709 96.3896 34.3278L95.3234 33.1536L89.4169 26.6487Z" fill="#EDEDED"/>
</g>
</g>
<defs>
<filter id="filter0_d_2001_76" x="0" y="0" width="72" height="72" filterUnits="userSpaceOnUse" color-interpolation-filters="sRGB">
<feFlood flood-opacity="0" result="BackgroundImageFix"/>
<feColorMatrix in="SourceAlpha" type="matrix" values="0 0 0 0 0 0 0 0 0 0 0 0 0 0 0 0 0 0 127 0" result="hardAlpha"/>
<feOffset dy="1"/>
<feGaussianBlur stdDeviation="8"/>
<feColorMatrix type="matrix" values="0 0 0 0 0 0 0 0 0 0 0 0 0 0 0 0 0 0 0.1 0"/>
<feBlend mode="normal" in2="BackgroundImageFix" result="effect1_dropShadow_2001_76"/>
<feBlend mode="normal" in="SourceGraphic" in2="effect1_dropShadow_2001_76" result="shape"/>
</filter>
<filter id="filter1_d_2001_76" x="56" y="0" width="72" height="72" filterUnits="userSpaceOnUse" color-interpolation-filters="sRGB">
<feFlood flood-opacity="0" result="BackgroundImageFix"/>
<feColorMatrix in="SourceAlpha" type="matrix" values="0 0 0 0 0 0 0 0 0 0 0 0 0 0 0 0 0 0 127 0" result="hardAlpha"/>
<feOffset dy="1"/>
<feGaussianBlur stdDeviation="8"/>
<feColorMatrix type="matrix" values="0 0 0 0 0 0 0 0 0 0 0 0 0 0 0 0 0 0 0.1 0"/>
<feBlend mode="normal" in2="BackgroundImageFix" result="effect1_dropShadow_2001_76"/>
<feBlend mode="normal" in="SourceGraphic" in2="effect1_dropShadow_2001_76" result="shape"/>
</filter>
<radialGradient id="paint0_radial_2001_76" cx="0" cy="0" r="1" gradientUnits="userSpaceOnUse" gradientTransform="translate(64.5185 30.1163) rotate(170.896) scale(66.1418 27.0805)">
<stop stop-color="white"/>
<stop offset="1" stop-color="white" stop-opacity="0"/>
</radialGradient>
<radialGradient id="paint1_radial_2001_76" cx="0" cy="0" r="1" gradientUnits="userSpaceOnUse" gradientTransform="translate(12.4198 -8.25582) rotate(44.1959) scale(46.1482 31.7792)">
<stop stop-color="white"/>
<stop offset="1" stop-color="white" stop-opacity="0"/>
</radialGradient>
<radialGradient id="paint2_radial_2001_76" cx="0" cy="0" r="1" gradientUnits="userSpaceOnUse" gradientTransform="translate(-0.0493818 69.031) rotate(-8.7222) scale(49.5858 20.2407)">
<stop stop-color="white"/>
<stop offset="1" stop-color="white" stop-opacity="0"/>
</radialGradient>
<radialGradient id="paint3_radial_2001_76" cx="0" cy="0" r="1" gradientUnits="userSpaceOnUse" gradientTransform="translate(120.519 30.1163) rotate(170.896) scale(66.1418 27.0805)">
<stop stop-color="white"/>
<stop offset="1" stop-color="white" stop-opacity="0"/>
</radialGradient>
<radialGradient id="paint4_radial_2001_76" cx="0" cy="0" r="1" gradientUnits="userSpaceOnUse" gradientTransform="translate(68.4198 -8.25582) rotate(44.1959) scale(46.1482 31.7792)">
<stop stop-color="white"/>
<stop offset="1" stop-color="white" stop-opacity="0"/>
</radialGradient>
<radialGradient id="paint5_radial_2001_76" cx="0" cy="0" r="1" gradientUnits="userSpaceOnUse" gradientTransform="translate(55.9506 69.031) rotate(-8.7222) scale(49.5858 20.2407)">
<stop stop-color="white"/>
<stop offset="1" stop-color="white" stop-opacity="0"/>
</radialGradient>
<clipPath id="clip0_2001_76">
<rect width="20" height="20" fill="white" transform="translate(26 45) rotate(-90)"/>
</clipPath>
<clipPath id="clip1_2001_76">
<rect width="20" height="20" fill="white" transform="translate(102 25) rotate(90)"/>
</clipPath>
</defs>
</svg>

<svg xmlns="http://www.w3.org/2000/svg" width="128" height="72" fill="none" viewBox="0 0 128 72"><g filter="url(#a)"><circle cx="36" cy="35" r="19.5" fill="#fff" fill-opacity=".1" transform="rotate(-90 36 35)"/><circle cx="36" cy="35" r="19.5" stroke="url(#b)" transform="rotate(-90 36 35)"/><circle cx="36" cy="35" r="19.5" stroke="url(#c)" transform="rotate(-90 36 35)"/><circle cx="36" cy="35" r="19.5" stroke="url(#d)" transform="rotate(-90 36 35)"/><g clip-path="url(#e)"><path fill="#ededed" d="M38.583 43.351a1 1 0 0 0 1.48 0l.327-.358a1 1 0 0 0 0-1.345l-5.426-5.976a1 1 0 0 1 0-1.344l5.426-5.976a1 1 0 0 0 0-1.344l-.326-.36a1 1 0 0 0-1.48 0l-5.907 6.506-1.067 1.174a1 1 0 0 0 0 1.344l1.067 1.174z"/></g></g><g filter="url(#f)"><circle cx="92" cy="35" r="19.5" fill="#fff" fill-opacity=".1" transform="rotate(90 92 35)"/><circle cx="92" cy="35" r="19.5" stroke="url(#g)" transform="rotate(90 92 35)"/><circle cx="92" cy="35" r="19.5" stroke="url(#h)" transform="rotate(90 92 35)"/><circle cx="92" cy="35" r="19.5" stroke="url(#i)" transform="rotate(90 92 35)"/><g clip-path="url(#j)"><path fill="#ededed" d="M89.417 26.649a1 1 0 0 0-1.48 0l-.327.358a1 1 0 0 0 0 1.345l5.427 5.976a1 1 0 0 1 0 1.344l-5.427 5.976a1 1 0 0 0 0 1.344l.326.36a1 1 0 0 0 1.48 0l5.907-6.506 1.067-1.174a1 1 0 0 0 0-1.344l-1.067-1.174z"/></g></g><defs><radialGradient id="b" cx="0" cy="0" r="1" gradientTransform="rotate(170.896 31.06 17.626)scale(66.1418 27.0805)" gradientUnits="userSpaceOnUse"><stop stop-color="#fff"/><stop offset="1" stop-color="#fff" stop-opacity="0"/></radialGradient><radialGradient id="c" cx="0" cy="0" r="1" gradientTransform="rotate(44.196 16.377 11.167)scale(46.1482 31.7792)" gradientUnits="userSpaceOnUse"><stop stop-color="#fff"/><stop offset="1" stop-color="#fff" stop-opacity="0"/></radialGradient><radialGradient id="d" cx="0" cy="0" r="1" gradientTransform="rotate(-8.722 452.561 34.84)scale(49.5858 20.2407)" gradientUnits="userSpaceOnUse"><stop stop-color="#fff"/><stop offset="1" stop-color="#fff" stop-opacity="0"/></radialGradient><radialGradient id="g" cx="0" cy="0" r="1" gradientTransform="rotate(170.896 59.06 19.856)scale(66.1418 27.0805)" gradientUnits="userSpaceOnUse"><stop stop-color="#fff"/><stop offset="1" stop-color="#fff" stop-opacity="0"/></radialGradient><radialGradient id="h" cx="0" cy="0" r="1" gradientTransform="rotate(44.196 44.377 80.13)scale(46.1482 31.7792)" gradientUnits="userSpaceOnUse"><stop stop-color="#fff"/><stop offset="1" stop-color="#fff" stop-opacity="0"/></radialGradient><radialGradient id="i" cx="0" cy="0" r="1" gradientTransform="matrix(49.01238 -7.5192 3.0693 20.00663 55.95 69.03)" gradientUnits="userSpaceOnUse"><stop stop-color="#fff"/><stop offset="1" stop-color="#fff" stop-opacity="0"/></radialGradient><clipPath id="e"><path fill="#fff" d="M26 45V25h20v20z"/></clipPath><clipPath id="j"><path fill="#fff" d="M102 25v20H82V25z"/></clipPath><filter id="a" width="72" height="72" x="0" y="0" color-interpolation-filters="sRGB" filterUnits="userSpaceOnUse"><feFlood flood-opacity="0" result="BackgroundImageFix"/><feColorMatrix in="SourceAlpha" result="hardAlpha" values="0 0 0 0 0 0 0 0 0 0 0 0 0 0 0 0 0 0 127 0"/><feOffset dy="1"/><feGaussianBlur stdDeviation="8"/><feColorMatrix values="0 0 0 0 0 0 0 0 0 0 0 0 0 0 0 0 0 0 0.1 0"/><feBlend in2="BackgroundImageFix" result="effect1_dropShadow_2001_76"/><feBlend in="SourceGraphic" in2="effect1_dropShadow_2001_76" result="shape"/></filter><filter id="f" width="72" height="72" x="56" y="0" color-interpolation-filters="sRGB" filterUnits="userSpaceOnUse"><feFlood flood-opacity="0" result="BackgroundImageFix"/><feColorMatrix in="SourceAlpha" result="hardAlpha" values="0 0 0 0 0 0 0 0 0 0 0 0 0 0 0 0 0 0 127 0"/><feOffset dy="1"/><feGaussianBlur stdDeviation="8"/><feColorMatrix values="0 0 0 0 0 0 0 0 0 0 0 0 0 0 0 0 0 0 0.1 0"/><feBlend in2="BackgroundImageFix" result="effect1_dropShadow_2001_76"/><feBlend in="SourceGraphic" in2="effect1_dropShadow_2001_76" result="shape"/></filter></defs></svg>
